X:178
M:3/2
L:1/4
K:D
A G G | F3 A G G | F3 F F A | d3/2 c/ B A F ^G | A3 c B A | B3/2 A/ A B A G | F6 | !sintro!E2 F2 G2 | F3 !eintro!|]
